img/service-size-icon__02.svg

<svg width="15" height="25" viewBox="0 0 15 25" fill="none" xmlns="http://www.w3.org/2000/svg">
<path d="M13.8173 4.67954L12.8659 2.70757V0.488281C12.8659 0.218604 12.6473 0 12.3777 0H2.61203C2.34235 0 2.12374 0.218604 2.12374 0.488281V2.72041L1.17858 4.67949C0.480483 6.12642 0.246401 7.72964 0.501724 9.31577L2.96007 24.5893C2.99816 24.826 3.20241 25 3.44215 25H6.51832C6.788 25 7.00661 24.7814 7.00661 24.5117V10.7548L7.49791 9.72295L7.98927 10.7548V24.5117C7.98927 24.7814 8.20787 25 8.47755 25H11.5537C11.7935 25 11.9977 24.826 12.0358 24.5893L14.4942 9.31577C14.7495 7.72964 14.5154 6.12646 13.8173 4.67954ZM9.20382 0.976562H11.8894V2.34375H9.20382V0.976562ZM6.76242 0.976562H8.22726V2.34375H6.76242V0.976562ZM3.10031 0.976562H5.78585V2.34375H3.10031V0.976562ZM13.6108 8.37275L12.3391 7.51421L11.0769 4.47573C10.9735 4.22666 10.6877 4.10864 10.4387 4.21211C10.1896 4.31558 10.0716 4.60132 10.1751 4.85034L11.4934 8.02417C11.5301 8.1125 11.5919 8.18804 11.6712 8.24155L13.4812 9.46348L11.1378 24.0234H8.96583V10.6445C8.96583 10.5719 8.94962 10.5001 8.91842 10.4346L7.98307 8.47041V6.54297C7.98307 6.27329 7.76447 6.05469 7.49479 6.05469C7.22511 6.05469 7.00651 6.27329 7.00651 6.54297V8.4834L6.07736 10.4346C6.04616 10.5002 6.02995 10.5719 6.02995 10.6445V24.0234H3.85802L1.51457 9.46353L3.32462 8.2416C3.40387 8.18809 3.46569 8.1125 3.50236 8.02422L4.82072 4.85039C4.92418 4.60137 4.80617 4.31563 4.55709 4.21216C4.30802 4.10864 4.02233 4.22671 3.91886 4.47578L2.6567 7.51426L1.38498 8.3728C1.33449 7.24717 1.56271 6.13057 2.05807 5.10391L2.91857 3.32031H12.0773L12.9378 5.10386C13.4331 6.13052 13.6613 7.24712 13.6108 8.37275Z" fill="black"/>
<path d="M11.9634 11.6664C11.6974 11.6236 11.4466 11.8047 11.4038 12.0709L10.8772 15.3422C10.8344 15.6085 11.0155 15.859 11.2817 15.9019C11.308 15.9061 11.3341 15.9081 11.3599 15.9081C11.5954 15.9081 11.8028 15.7373 11.8414 15.4973L12.3679 12.226C12.4108 11.9598 12.2297 11.7093 11.9634 11.6664Z" fill="black"/>
<path d="M12.2628 9.79715C11.9963 9.75453 11.7461 9.93607 11.7036 10.2024L11.7012 10.2175C11.6588 10.4838 11.8402 10.7341 12.1065 10.7766C12.1325 10.7807 12.1584 10.7827 12.184 10.7827C12.4198 10.7827 12.6273 10.6116 12.6656 10.3713L12.668 10.3562C12.7105 10.0899 12.529 9.83963 12.2628 9.79715Z" fill="black"/>
<path d="M7.84113 4.4071C7.75031 4.31628 7.62428 4.26403 7.49591 4.26403C7.36749 4.26403 7.24151 4.31628 7.15069 4.4071C7.05987 4.49792 7.00762 4.6239 7.00762 4.75232C7.00762 4.88122 7.05987 5.00671 7.15069 5.09753C7.24151 5.18884 7.36749 5.2406 7.49591 5.2406C7.62433 5.2406 7.75031 5.18884 7.84113 5.09753C7.93196 5.00671 7.9842 4.88122 7.9842 4.75232C7.9842 4.6239 7.93196 4.49792 7.84113 4.4071Z" fill="black"/>
</svg>

<svg width="15" height="25" fill="none" xmlns="http://www.w3.org/2000/svg"><path d="M13.817 4.68l-.951-1.972V.488A.488.488 0 0012.378 0H2.612a.488.488 0 00-.488.488V2.72l-.945 1.96a7.775 7.775 0 00-.677 4.636L2.96 24.589a.488.488 0 00.482.411h3.076c.27 0 .489-.219.489-.488V10.755l.49-1.032.492 1.032v13.757c0 .27.219.488.489.488h3.076c.24 0 .444-.174.482-.41l2.458-15.274a7.775 7.775 0 00-.677-4.636zM9.204.977h2.685v1.367H9.204V.977zm-2.442 0h1.465v1.367H6.762V.977zM3.1.977h2.686v1.367H3.1V.977zm10.51 7.396l-1.27-.859-1.263-3.038a.488.488 0 10-.902.374l1.318 3.174a.488.488 0 00.178.218l1.81 1.221-2.343 14.56H8.966V10.645a.488.488 0 00-.048-.21L7.983 8.47V6.543a.488.488 0 10-.976 0v1.94l-.93 1.952a.489.489 0 00-.047.21v13.378H3.858L1.515 9.463l1.81-1.221a.488.488 0 00.177-.218L4.821 4.85a.488.488 0 10-.902-.374L2.657 7.514l-1.272.859a6.799 6.799 0 01.673-3.27l.86-1.783h9.16l.86 1.784a6.8 6.8 0 01.673 3.269z" fill="#000"/><path d="M11.963 11.666a.488.488 0 00-.56.405l-.526 3.271a.488.488 0 00.964.155l.527-3.271a.488.488 0 00-.405-.56zm.3-1.869a.488.488 0 00-.56.405l-.002.015a.488.488 0 00.965.154l.002-.015a.488.488 0 00-.405-.559zm-4.422-5.39a.492.492 0 00-.69 0 .492.492 0 000 .69.49.49 0 00.833-.345.492.492 0 00-.143-.345z" fill="#000"/></svg>
